X:1
K:G
T: Le Diable Vert
M:C|
L:1/8
DC|"G"B,G,B,D GDGB|ed (3ddd "G#°"(dB)GB|
"Am7"cBAG FDEF|["1,3""D7"GBAG "D7+/D"FE:|["2,4""D7"GBAF "G"G2:|
|:A2|"Em"[B3E3] [BE][B2E2] ef|"Em"gfeg "Bm"fB (3BB(B|"Em"e)BBe BBef|"Em"gB-{/c}BA "D"BAGA|
"Em"BEBE B2 ef|"Em"gfeg "Bm"fB (3BB(B|"C"e)(f (3gfe) dBG(B|"D7"cB)AF G2:| 

%%vskip 1cm
